#define im_width 48
#define im_height 48
static char im_bits[] = {
0x00,0x00,0x00,0x00,0x00,0x00,0x00,0x00,0x00,0x00,0x00,0x00,0x00,0x00,0x00,
0x00,0x00,0x00,0x00,0x00,0x00,0x00,0x00,0x00,0x00,0x00,0x00,0x00,0x00,0x00,
0x00,0x00,0x00,0x00,0x00,0x00,0x00,0x00,0x00,0x00,0x00,0x00,0x00,0x00,0x00,
0x00,0x00,0x00,0x00,0xfe,0xff,0xff,0xff,0x00,0x00,0xff,0xff,0xff,0xff,0x01,
0x00,0xff,0xff,0xff,0xff,0x01,0x00,0xff,0xff,0xff,0xff,0x01,0x00,0x0f,0x00,
0x00,0xe0,0x01,0x00,0x0f,0x00,0x00,0xe0,0x01,0x00,0x0f,0x00,0x00,0xe0,0x01,
0x00,0x0f,0x00,0x00,0xe0,0x01,0x00,0x0f,0x00,0x00,0xe0,0x01,0x00,0x0f,0x00,
0x00,0xe0,0x01,0x00,0x0f,0x00,0x00,0xe0,0x01,0x00,0x0f,0x00,0x00,0xe0,0x01,
0x00,0x0f,0x00,0x00,0xe0,0x01,0x00,0x0f,0x00,0x00,0xe0,0x01,0x00,0x0f,0x00,
0x00,0xe0,0x01,0x00,0x0f,0x00,0x00,0xe0,0x01,0x00,0x0f,0x00,0x00,0xe0,0x01,
0x00,0x0f,0x00,0x00,0xe0,0x01,0x00,0x0f,0x00,0x00,0xe0,0x01,0x00,0x0f,0x00,
0x00,0xe0,0x01,0x00,0x0f,0x00,0x00,0xe0,0x01,0x00,0xff,0xff,0xff,0xff,0x01,
0x00,0xff,0xff,0xff,0xff,0x01,0x00,0xff,0xff,0xff,0xff,0x01,0x00,0xfe,0xff,
0xff,0xff,0x00,0x00,0x00,0xfc,0x7f,0x00,0x00,0x00,0x00,0xfc,0x7f,0x00,0x00,
0x00,0x00,0xfc,0x7f,0x00,0x00,0x00,0x00,0xfc,0x7f,0x00,0x00,0x00,0x00,0xfc,
0x7f,0x00,0x00,0x00,0x00,0xfc,0x7f,0x00,0x00,0x00,0x00,0xfc,0x7f,0x00,0x00,
0x00,0xff,0xff,0xff,0xff,0x01,0x00,0xff,0xff,0xff,0xff,0x01,0x00,0xff,0xff,
0xff,0xff,0x01,0x00,0xff,0xff,0xff,0xff,0x01,0x00,0xff,0xff,0xff,0xff,0x01,
0x00,0x00,0x00,0x00,0x00,0x00,0x00,0x00,0x00,0x00,0x00,0x00,0x00,0x00,0x00,
0x00,0x00,0x00
};
